X:1
T:Title
%%score { ( 1 3 ) | ( 2 4 ) }
L:1/8
Q:1/4=118
M:4/4
K:D
V:1 treble nm="Grand Piano"
V:3 treble 
V:2 bass 
V:4 bass 
V:1
 D2 D2 D2 [CE]2 | F2 A2 A4 | z4 F4 |[M:5/4] [A,DF]4[K:bass] [A,CE]6 | %4
w: Wm.~J.~Kirkpatrick * * *||||
[M:4/4] [F,D]2 [F,D]2 [F,D]2 [A,CE]2 | [A,DF]2 [DFA]2 [DFA]4 | D4- [DF]4 |[M:5/4] [G,CE]4 D6 | %8
w: ||||
[M:4/4] A2 A2 B2 F2 | A2 [CA]2 A4 | G2 G2 [CA]2 [CE]2 | [A,DF]2 [A,EG]2 [DFA]4 | %12
w: ||||
 [DGB]2 [DBd]2 [DAc]2 [DGB]2 | [DFA]2 [DFA]2 [A,DF]4 | z4 F4 |[M:5/4][K:bass] [G,CE]4 [F,A,D]6 | %16
w: ||||
 [FA]4 B6 | [A,DF]4 [DFA]6 | D4- [DG]4- [DG-]>G | [DF]4 [CE]6 |[M:4/4] F2 F2 E2 D2 | %21
w: |||||
 F2 [FA]2 [FA]4 | [CG]2 [CG]2 [CF]2 [CE]2 | [DF]2 [FA]2 [FA]4 |[M:5/4] B4 d6 | [DGB]4 [DFA]6 | %26
w: |||||
 D4- [DF]6 | [G,CE]4 [F,A,D]6 |] %28
w: ||
V:2
 [D,F,]2 [D,F,]2 [D,F,]2 [A,,A,]2 | [D,A,D]2 [D,F,D]2 [D,F,D]4 | A,8 |[M:5/4] A,,4 A,,6 | %4
[M:4/4] D,2 D,2 D,2 A,,2 | D,2 D,2 D,4 | z4 A,4 |[M:5/4] A,,4 [D,F,]6 | %8
[M:4/4] [D,F,D]2 [D,F,D]2 [D,G,D]2 [D,A,D]2 | [E,G,C]2 [A,,G,]2 [D,F,D]4 | %10
 [E,A,C]2 [E,A,C]2 [A,,A,]2 [A,,A,]2 | D,2 D,2 D,4 | G,2 G,2 G,2 G,2 | D,2 D,2 D,4 | F,4 D,4 | %15
[M:5/4] A,,4 D,6 | z4 G6 | D,4 D,6 | z4 B,6 | [A,,A,]4 [A,,A,]6 | %20
[M:4/4] [D,A,D]2 [D,A,D]2 [D,G,A,]2 [D,F,A,]2 | [D,A,D]2 [D,D]2 [D,D]4 | %22
 [E,A,]2 [E,A,]2 [A,,A,]2 [A,,A,]2 | [D,A,]2 [D,D]2 [D,D]4 |[M:5/4][K:treble] G4 B6 | D,4 D,6 | %26
 F,4 D,6 | A,,4 D,6 |] %28
V:3
 x8 | x8 | D8 |[M:5/4] x4[K:bass] x6 |[M:4/4] x8 | x8 | F,4 z4 |[M:5/4] x10 |[M:4/4] x8 | x8 | x8 | %11
 x8 | x8 | x8 | [A,D]8 |[M:5/4][K:bass] x10 | D2- D2- D6 | x10 | F,4 z2 z4 | x10 |[M:4/4] x8 | x8 | %22
 x8 | x8 |[M:5/4] x10 | x10 | A,2- A,2- A,4- A,3/2 z/ | x10 |] %28
V:4
 x8 | x8 | F,4 D,4 |[M:5/4] x10 |[M:4/4] x8 | x8 | D,8 |[M:5/4] x10 |[M:4/4] x8 | x8 | x8 | x8 | %12
 x8 | x8 | x8 |[M:5/4] x10 | D,2- D,2- D,6 | x10 | D,2- D,2- D,4- D,3/2 z/ | x10 |[M:4/4] x8 | x8 | %22
 x8 | x8 |[M:5/4][K:treble] [G,D]2- [G,D]2- [G,D]6 | x10 | x10 | x10 |] %28

